X:1
T:Lyman, 12.12.88
T:Arranged from Beethoven
T:Lyman, 12.12.88
T:Public Domain
C:Arranged from Beethoven
Z:Public Domain
%%score ( 1 2 ) ( 3 4 )
L:1/8
M:6/8
K:Bb
V:1 treble 
V:2 treble 
V:3 bass 
V:4 bass 
V:1
 [DF] | [DF]2 [DF] (FG)[DF] | [DB]3- [DB]2 [DF] | [EF]2 [EF] (FG)[EF] | [Fc]3- [Fc]2 [Fc] | %5
 [Fd]2 [Fd] (cB)[EG] | [DF]3 F3 | F2 [CF] [FA]2 [=EG] | F3- F2 F | z2 F (F=E_E) | %10
 ([D-d]3 [DB]2) F | z2 F (F=E_E) | [Dd]3- [Dd]2 f | z2 D (DEF) | [Ge]3 [GB]2 [_Gc] | [Fd]3 (d2 c) | %16
 [DB]3- [DB]2 |] %17
V:2
 x | x3 D2 x | x6 | x3 E2 x | x6 | x3 G2 x | x3 F3 | F2 x4 | F3- F2 x | c3 c3 | x6 | (c3 c3) | x6 | %13
 (f3 f3) | x6 | x3 E3 | x5 |] %17
V:3
 [B,,B,] | [B,,B,]2 [B,,B,] [B,,B,]2 [B,,B,] | [B,,F,]3- [B,,F,]2 [B,,B,] | %3
 [F,A,]2 [F,A,] (A,B,)[F,A,] | [F,A,]3- [F,A,]2 [F,A,] | B,2 [B,,B,] [E,B,]2 [E,B,] | %6
 [B,,B,]3 [D,B,]3 | [C,A,]2 [C,A,] [C,C]2 [C,B,] | [F,A,]3- [F,A,]2 z | %9
 z2 [F,A,] ([F,A,][G,B,][A,C]) | B,3- B,2 z | z2 [F,A,] ([F,A,][G,B,][A,C]) | B,3- B,2 z | %13
 z2 [B,,B,] ([B,,B,][C,A,][D,_A,]) | G,2 B, [E,B,]3 | [F,B,]3 [F,A,]3 | [B,,B,]3- [B,,B,]2 |] %17
V:4
 x | x6 | x6 | x3 F,2 x | x6 | B,2 x4 | x6 | x6 | x6 | x6 | B,3- B,2 x | x6 | B,3- B,2 x | x6 | %14
 E,3 x3 | x6 | x5 |] %17

